!!!OTL: ES STEHEN DREI STERNE AM HIMMEL
!!!ARE: Europa, Mitteleuropa, Deutschland, Westfalen
!!!SCT: Z0016
!!!YEM: Copyright 1995, estate of Helmut Schaffrath.
**kern
*ICvox
*Ivox
*M6/8
*k[b-]
*F:
{8c
=1
8.f
16e
8f
8.g
16f
8g
=2
8.a
16b-
16a
16g
4f}
{16a
16b-
=3
8.cc
16dd
8cc
8.f
16a
8g
=4
4.a
4r}
{8c
=5
8.f
16e
8f
8.g
16f
8g
=6
8.a
16b-
16a
16g
4f}
{16a
16b-
=7
8.cc
16dd
8cc
8.f
16a
8g
=8
4.a
4r}
{16e
16f
=9
4g
8a
8.a
16b-
8cc
=10
4.b-
4g
8r}
=11
{4a
8g
4f
8g
=12
8.a
16b-
16a
16g
4f
8r
=13
8.a
16b-
16a
16g
4f}
==
!!!AGN: Sagen - Lied, Romanze, falsche Liebe, Tod
!!!ONB: ESAC (Essen Associative Code) Database: ZUCCAL
!!!AMT: compound duple
!!!AIN: vox
!!!EED: Helmut Schaffrath
!!!EEV: 1.0
*-
